images_sukapura_svg/cmd/sc_gallery.svg

<svg height="16" viewBox="0 0 16 16" width="16" xmlns="http://www.w3.org/2000/svg" xmlns:xlink="http://www.w3.org/1999/xlink"><radialGradient id="a" cx="12" cy="17.5" gradientTransform="matrix(1.2929293 -.00000001 .00000002 .96969695 -7.515152 -5.333333)" gradientUnits="userSpaceOnUse" r="9"><stop offset="0" stop-color="#fff9ea"/><stop offset=".29417419" stop-color="#fdd6ba"/><stop offset=".75" stop-color="#f6ac8b"/><stop offset="1" stop-color="#c79fc7"/></radialGradient><filter id="b" color-interpolation-filters="sRGB" height="1.264" width="1.058667" x="-.029333" y="-.132"><feGaussianBlur stdDeviation=".22"/></filter><clipPath id="c"><path d="m3 14c.4875945 0 6-4 6-4l2 1.593356 4-1.593356h2l4 2v2z"/></clipPath><radialGradient id="d" cx="15.000001" cy="13.642857" gradientTransform="matrix(1.2121212 .0000003 -.00000012 .56565656 -8 3.919188)" gradientUnits="userSpaceOnUse" r="9"><stop offset="0" stop-color="#f7f2f6"/><stop offset=".40000007" stop-color="#c2a2ba"/><stop offset=".75000006" stop-color="#be9bb4"/><stop offset="1" stop-color="#ac80a1"/></radialGradient><path d="m0 0v16h16v-16z" fill="#98989d" stroke-width=".750997"/><g stroke-width=".727273"><path d="m2 2 12 .0454542.545455 12.5000008-12.545455-.545455z" fill="#fff"/><path d="m1 1v14h14v-14zm1 1h12v12h-12z" fill="#fff"/><path d="m2 2 12 .045454v9.454546h-12z" fill="url(#a)"/><path d="m2 11.5c.3546141 0 3.8181818-2.7727273 3.8181818-2.7727273l1.4545455 1.1588044 2.9090907-1.1588044h1.454546l2.363636 1.3181813v1.454546z" fill="#1f1c1f" fill-rule="evenodd"/></g><path clip-path="url(#c)" d="m9 10s-4.7624056 3.8125-5.2500001 3.8125h.9492189c1.7852844-1.183321 4.3007812-2.8125 4.3007812-2.8125l2 1.59375 4-1.59375h2l3.249999 1.8125v-1l-3.249999-1.8125h-2l-4 1.59375z" fill="#808080" fill-rule="evenodd" filter="url(#b)" transform="matrix(.72727273 0 0 .72727273 -.727273 1.454546)"/><path d="m2 11.5h12v2.5h-12z" fill="url(#d)" stroke-width=".727273"/></svg>

<?xml version="1.0" encoding="UTF-8" standalone="no"?>
<svg
   xmlns:dc="http://purl.org/dc/elements/1.1/"
   xmlns:cc="http://creativecommons.org/ns#"
   xmlns:rdf="http://www.w3.org/1999/02/22-rdf-syntax-ns#"
   xmlns:svg="http://www.w3.org/2000/svg"
   xmlns="http://www.w3.org/2000/svg"
   xmlns:sodipodi="http://sodipodi.sourceforge.net/DTD/sodipodi-0.dtd"
   xmlns:inkscape="http://www.inkscape.org/namespaces/inkscape"
   viewBox="0 0 16 16"
   version="1.1"
   id="svg43"
   sodipodi:docname="sc_gallery.svg"
   inkscape:export-filename="/home/rizmut/Dokumen/Rizmut/Github/libreoffice-style-sukapura/images_sukapura/cmd/sc_gallery.png"
   inkscape:export-xdpi="96"
   inkscape:export-ydpi="96"
   width="16"
   height="16"
   inkscape:version="0.92.3 (unknown)">
  <metadata
     id="metadata49">
    <rdf:RDF>
      <cc:Work
         rdf:about="">
        <dc:format>image/svg+xml</dc:format>
        <dc:type
           rdf:resource="http://purl.org/dc/dcmitype/StillImage" />
        <dc:title></dc:title>
      </cc:Work>
    </rdf:RDF>
  </metadata>
  <defs
     id="defs47" />
  <sodipodi:namedview
     pagecolor="#ffffff"
     bordercolor="#666666"
     borderopacity="1"
     objecttolerance="10"
     gridtolerance="10"
     guidetolerance="10"
     inkscape:pageopacity="0"
     inkscape:pageshadow="2"
     inkscape:window-width="1366"
     inkscape:window-height="706"
     id="namedview45"
     showgrid="true"
     inkscape:zoom="11.313709"
     inkscape:cx="-11.575513"
     inkscape:cy="-0.5492889"
     inkscape:window-x="0"
     inkscape:window-y="0"
     inkscape:window-maximized="1"
     inkscape:current-layer="svg43">
    <inkscape:grid
       type="xygrid"
       id="grid1541"
       spacingx="0.5"
       spacingy="0.5"
       empspacing="2" />
  </sodipodi:namedview>
  <radialGradient
     id="a"
     cx="12"
     cy="17.5"
     gradientTransform="matrix(1.2929293,-1.4545455e-8,2.1818182e-8,0.96969695,-7.515152,-5.3333331)"
     gradientUnits="userSpaceOnUse"
     r="9">
    <stop
       offset="0"
       stop-color="#fff9ea"
       id="stop2" />
    <stop
       offset=".29417419"
       stop-color="#fdd6ba"
       id="stop4" />
    <stop
       offset=".75"
       stop-color="#f6ac8b"
       id="stop6" />
    <stop
       offset="1"
       stop-color="#c79fc7"
       id="stop8" />
  </radialGradient>
  <filter
     id="b"
     height="1.2640001"
     width="1.0586669"
     x="-0.029332999"
     y="-0.132"
     style="color-interpolation-filters:sRGB">
    <feGaussianBlur
       stdDeviation=".22"
       id="feGaussianBlur11" />
  </filter>
  <clipPath
     id="c">
    <path
       d="m 3,14 c 0.4875945,0 6,-4 6,-4 L 11,11.593356 15,10 h 2 l 4,2 v 2 z"
       id="path14"
       inkscape:connector-curvature="0" />
  </clipPath>
  <radialGradient
     id="d"
     cx="15.000001"
     cy="13.642857"
     gradientTransform="matrix(1.2121212,2.9818182e-7,-1.1636364e-7,0.56565656,-8,3.9191877)"
     gradientUnits="userSpaceOnUse"
     r="9">
    <stop
       offset="0"
       stop-color="#f7f2f6"
       id="stop17" />
    <stop
       offset=".40000007"
       stop-color="#c2a2ba"
       id="stop19" />
    <stop
       offset=".75000006"
       stop-color="#be9bb4"
       id="stop21" />
    <stop
       offset="1"
       stop-color="#ac80a1"
       id="stop23" />
  </radialGradient>
  <filter
     id="e"
     height="1.0024608"
     width="1.0023419"
     x="-0.0011709495"
     y="-0.0012304238"
     style="color-interpolation-filters:sRGB">
    <feGaussianBlur
       stdDeviation="0.010354344"
       id="feGaussianBlur26" />
  </filter>
  <path
     d="M 0,0 V 16 H 16 V 0 Z"
     id="path29"
     style="opacity:1;fill:#98989d;fill-opacity:1;stroke-width:0.75099695"
     inkscape:connector-curvature="0"
     sodipodi:nodetypes="ccccc" />
  <path
     d="M 2,2 14,2.0454542 14.545455,14.545455 2,14 Z"
     id="path31"
     inkscape:connector-curvature="0"
     style="fill:#ffffff;stroke-width:0.72727275"
     sodipodi:nodetypes="ccccc" />
  <path
     d="M 1,1 V 15 H 15 V 1 Z M 2,2 H 14 V 14 H 2 Z"
     id="path33"
     inkscape:connector-curvature="0"
     style="fill:#ffffff;stroke-width:0.72727275"
     sodipodi:nodetypes="cccccccccc" />
  <path
     d="m 2,2 12,0.045454 V 11.5 H 2 Z"
     id="path35"
     inkscape:connector-curvature="0"
     style="fill:url(#a);stroke-width:0.72727275"
     sodipodi:nodetypes="ccccc" />
  <path
     d="m 2,11.5 c 0.3546141,0 3.8181818,-2.7727273 3.8181818,-2.7727273 L 7.2727273,9.8860771 10.181818,8.7272727 h 1.454546 L 14,10.045454 V 11.5 Z"
     id="path37"
     inkscape:connector-curvature="0"
     style="fill:#1f1c1f;fill-rule:evenodd;stroke-width:0.72727275"
     sodipodi:nodetypes="cccccccc" />
  <path
     clip-path="url(#c)"
     d="m 9,10 c 0,0 -4.7624056,3.8125 -5.2500001,3.8125 H 4.6992188 C 6.4845032,12.629179 9,11 9,11 L 11,12.59375 15,11 h 2 l 3.249999,1.8125 v -1 L 17,10 h -2 l -4,1.59375 z"
     transform="matrix(0.72727273,0,0,0.72727273,-0.72727273,1.4545455)"
     id="path39"
     inkscape:connector-curvature="0"
     style="fill:#808080;fill-rule:evenodd;filter:url(#b)"
     sodipodi:nodetypes="ccccccccccccc" />
  <path
     d="M 2,11.5 H 14 V 14 H 2 Z"
     id="path41"
     inkscape:connector-curvature="0"
     style="fill:url(#d);stroke-width:0.72727275"
     sodipodi:nodetypes="ccccc" />
</svg>
